X:1
T:Cameronian Reel, The [2]
M:C|
L:1/8
R:Reel
S:Kerr - Merry Melodies, vol. 4, No. 134  (c. 1880's)
Z:AK/Fiddler's Companion
K:G
(dc)|:Bdde dcBG|Bdde dega|beed efga|bgaf gfed|
Bdde dcBG|Bdde dega|beed efga|bgaf g2||
(dc)|Bcdc BGGB|BGdc BGGB|c2 (cd) eAAB|cAeA (cA)|
Bcdc BGGB|BGdc BGGB|gfed (3efg (af)|gedB G2||

